X:1
T:Goodnight Loving Trial
M:3/4
L:1/4
K:G
 B B3/2 B/2| B c d| d c3/2 B/2| A2 D| A3/2 A/2 A| A B A| G G3/2 A/2|\
 B2 B/2c/2| d d3/2 d/2| d c B| c c3/2 d/2| c3-| c2 D/2D/2| G G2| A2 B/2A/2|\
 G2 D| E3-| E2 c| B B B| B c d| A3-| A2 D| G G2| A2 B/2A/2| G G D|\
 E3-| E2 c/2c/2| B B3/2 B/2| B2 B| A A3/2 B/2| A3-| A2 D| A A A| D E3/2 F/2|\
 G3-| G3-| G3-| G3|
